!!!COM:      Bach, Johann Sebastian
!!!CDT:      1685/03/31/-1750/07/28/
!!!OPR@@GER: Das wohltemperirte Clavier
!!!OVM@@GER: Band II
!!!OPR@ENG:  Well-Tempered Clavier
!!!OVM@ENG:  Book II
!!!OTL:      Fugue
!!!OKY:      B minor
!!!ONM:      no. 24
!!!SCT:      BWV 893
!!!OMV:      2
**kern	**kern	**kern
*clefF4	*clefG2	*clefG2
*k[f#c#]	*k[f#c#]	*k[f#c#]
*b:	*b:	*b:
*M3/8	*M3/8	*M3/8
*MM72	*MM72	*MM72
=1-	=1-	=1-
8r	8f#	8r
=2	=2	=2
4.r	8d	4.r
.	8B	.
.	8A#	.
=3	=3	=3
4.r	8B	4.r
.	16c#	.
.	16d	.
.	16e	.
.	16f#	.
=4	=4	=4
4.r	8g	4.r
.	8G	.
.	8g	.
=5	=5	=5
4.r	8f#	4.r
.	8F#	.
.	8f#	.
=6	=6	=6
4.r	8e	4.r
.	16f#	.
.	16e	.
.	16d	.
.	16c#	.
=7	=7	=7
4.r	16d	8r
.	16f#	.
.	16e	8r
.	16d	.
.	16c#	8b
.	16B	.
=8	=8	=8
4.r	16c#	8a
.	16B	.
.	16c#	8f#
.	16d	.
.	16c#	8e#
.	16B	.
=9	=9	=9
*	*staff:13	*
*	*clefF4	*
4.ryy	8A	8f#
.	8F#	16g#
.	.	16a
.	8E#	16b
.	.	16cc#
=10	=10	=10
*	*staff:11	*staff:12
4.ryy	16F#	8dd
.	16G#	.
.	8.G#t	8d
.	.	8dd
.	32F#	.
.	32G#	.
=11	=11	=11
4.ryy	16A	8cc#
.	16B	.
.	16A	8c#
.	16G#	.
.	16F#	8cc#
.	16E	.
=12	=12	=12
4.ryy	16D#	8b
.	16E#	.
.	8.E#t	16cc#
.	.	16b
.	.	16a
.	32D#	16g#
.	32E#	.
=13	=13	=13
4.ryy	8F#	16a
.	.	16cc#
.	8G#	16b
.	.	16a
.	8A	16g#
.	.	16f#
=14	=14	=14
4.ryy	16B	8gn
.	16c#	.
.	8.c#t	16a
.	.	16g
.	.	16f#
.	32B	16e
.	32c#	.
=15	=15	=15
4.ryy	8d	16f#
.	.	16a
.	8A#	16g
.	.	16f#
.	[8B	16e
.	.	16d
=16	=16	=16
8r	8B]	8e
8r	16A#	16f#
.	16G#	16e
8F#	8A#	16d
.	.	16c#
=17	=17	=17
8D	8B	16d
.	.	16e
8BB	8r	16f#
.	.	16g
8AA#	16r	[8f#
.	16e	.
=18	=18	=18
*	*clefG2	*
8BB	8d	4.f#_
16C#	8B	.
16D	.	.
16E	8A#	.
16F#	.	.
=19	=19	=19
8G	16B	8f#]
.	16c#	.
8GG	8.c#t	8e
8G	.	[8a
.	32B	.
.	32c#	.
=20	=20	=20
8F#	16d	8a]
.	16e	.
8FF#	16d	8f#
.	16c#	.
8F#	16B	[8d
.	16A	.
=21	=21	=21
8E	16G#	8d]
.	16A#	.
16F#	8.A#t	8c#
16E	.	.
16D	.	[8f#
16C#	32G#	.
.	32A#	.
=22	=22	=22
16D	8B	8f#]
16F#	.	.
16E	8r	8r
16D	.	.
16C#	8r	8g#
16BB	.	.
=23	=23	=23
16C#	4.r	16a
16D#	.	16cc#
8.D#t	.	16b
.	.	16a
.	.	16g#
32C#	.	16f#
32D#	.	.
=24	=24	=24
16E	4.r	16g#
16Gn	.	16a#
16F#	.	8.a#t
16E	.	.
16Dn	.	.
16C#	.	32g#
.	.	32a#
=25	=25	=25
16D#	4.r	16b
16E#	.	16dd
8.E#t	.	16cc#
.	.	16b
.	.	16an
32D#	.	16g#
32E#	.	.
=26	=26	=26
16F#	4.r	16a
16A	.	16b
16G#	.	8.bT
16F#	.	.
16E#	.	.
16D#	.	32a
.	.	32b
=27	=27	=27
16E#	8r	[4.cc#
16G#	.	.
16F#	8r	.
16E#	.	.
16D#	8c#	.
16C#	.	.
=28	=28	=28
*	*staff:7	*
*	*clefF4	*
8F#	8A	16cc#]
.	.	16dd
8AA	8F#	16cc#
.	.	16b
8C#	8E#	16a
.	.	16g#
=29	=29	=29
8FF#	8F#	8a
8r	16G#	8f#
.	16A	.
8r	16B	8e#
.	16c#	.
=30	=30	=30
16r	8d	4f#
16A	.	.
16BB	8D	.
16A	.	.
16BB	8d	[8b
16G#	.	.
=31	=31	=31
16AA	8c#	8b]
16G#	.	.
16AA	8C#	8e#
16G#	.	.
16AA	8c#	8f#
16F#	.	.
=32	=32	=32
16GG#	8B	8d
16F#	.	.
16E#	16c#	[4c#
16G#X	16B	.
16C#	16A	.
16E#	16G#X	.
=33	=33	=33
16FF#	8A	4c#]
16F#	.	.
16GG#	8B	.
16F#	.	.
16AA	[8c#	8f#
16F#	.	.
=34	=34	=34
16BB	8c#]	8d
16F#	.	.
16C#	8B	8e
16F#	.	.
16D	8A	[8f#
16F#	.	.
=35	=35	=35
16EE	8G	8f#]
16E	.	.
16FF#	8A	8e
16E	.	.
16GG	[8B	8d
16E	.	.
=36	=36	=36
16AA	8B]	8c#
16E	.	.
16BB	8A	8r
16E	.	.
16C#	8r	8aa
16E	.	.
=37	=37	=37
*	*staff:6	*
*	*clefG2	*
16D	4.r	8ff#
16E	.	.
16F#	.	8dd
16G	.	.
16A	.	8cc#
16G	.	.
=38	=38	=38
16F#	4.r	8dd
16A	.	.
16G	.	16ee
16F#	.	16ff#
16E	.	16gg
16D	.	16aa
=39	=39	=39
*	*staff:5	*
*	*clefF4	*
8G	16r	8bb
.	16f#	.
8r	16G	8b
.	16f#	.
8E	16G	8bb
.	16e	.
=40	=40	=40
8F#	16F#	8aa
.	16e	.
8r	16F#	8a
.	16e	.
8D	16F#	8aa
.	16d	.
=41	=41	=41
8E	16E	8gg
.	16d	.
4A	16c#	16aa
.	16e	16gg
.	16A	16ff#
.	16c#	16ee
=42	=42	=42
*	*staff:6	*
*	*clefG2	*
8D	16d	16ff#
.	16c#	16aa
8r	16d	16gg
.	16e	16ff#
8B	16f#	16ee
.	16g#	16dd
=43	=43	=43
8f#	16a	8cc#
.	16g#	.
8r	16a	8dd
.	16b	.
8c#	16a	[8ee
.	16g#	.
=44	=44	=44
8d	16f#	8ee]
.	16e	.
8r	16f#	8dd
.	16g#	.
8d#	16a	8cc#
.	16f#	.
=45	=45	=45
8e	16g#	8b
.	16e	.
8r	16f#	8a
.	16e	.
8E	16g#	8b
.	16e	.
=46	=46	=46
8C#	16a	8cc#
.	16e	.
8AA	16cc#	8ee
.	16e	.
8GG#	16b	8dd
.	16e	.
=47	=47	=47
8AA	8.a	[4.cc#
16BB	.	.
16C#	16g#	.
16D	16f#	.
16E	16e	.
=48	=48	=48
8F#	8d	16cc#]
.	.	16cc#
8FF#	8a	16d
.	.	16cc#
8F#	8g#	16d
.	.	16b
=49	=49	=49
8E	8r	16c#
.	.	16b
8EE	8g#	16c#
.	.	16b
8E	8f#	16c#
.	.	16a
=50	=50	=50
8D	8r	16B
.	.	16a
16E	8e	16g#
16D	.	16b
16C#	[8d	16e
16BB	.	16g#
=51	=51	=51
16C#	8d]	8a
16E	.	.
16A	8c#	8e
16E	.	.
16D#	[8cn	8f#
16A	.	.
=52	=52	=52
16E	8c]	8g
16G	.	.
16F#	8B	8g#
16E	.	.
16Dn	[8e	8a#
16C#	.	.
=53	=53	=53
16D	8e]	8b
16F#	.	.
16B	8d#	8f#
16F#	.	.
16E#	[8dn	8g#
16B	.	.
=54	=54	=54
16F#	8d]	8a
16A	.	.
16G#	8c#	8a#
16F#	.	.
16E#	[8f#	8b#
16D#	.	.
=55	=55	=55
16C#	8f#]	[4.cc#
16Dn	.	.
16C#	8e#	.
16BB	.	.
16AA	8cc#	.
16GG#	.	.
=56	=56	=56
16FF#	8a	8cc#]
16F#	.	.
16G#	8f#	8a
16A	.	.
16B	8e#	8g#
16c#	.	.
=57	=57	=57
16d	8f#	8f#
16e	.	.
16d	16g#	8r
16c#	16a#	.
16B	16b	8r
16A#	16cc#	.
=58	=58	=58
8B	8dd	16r
.	.	16aa
8r	8d	16b
.	.	16aa
8E	8dd	16b
.	.	16gg#
=59	=59	=59
8A	8cc#	16a
.	.	16gg#
8r	8c#	16a
.	.	16gg#
[8d	8cc#	16a
.	.	16ff#
=60	=60	=60
8d]	8b	16g#
.	.	16ff#
[4c#	16cc#	16ee#
.	16b	16gg#X
.	16a	16cc#
.	16g#X	16ee#
=61	=61	=61
16c#]	[4.a	8ff#
16B	.	.
16A	.	8cc#
16G#	.	.
16F#	.	[8ff#
16E	.	.
=62	=62	=62
8D#	4a_	16ff#]
.	.	16ee
[4B	.	16dd#
.	.	16cc#
.	16a]	[8b
.	16a	.
=63	=63	=63
16B]	16gn	8b]
16A	16f#	.
16G	8e	8b
16F#	.	.
16E	[8g	[8ee
16D	.	.
=64	=64	=64
8C#	4g_	16ee]
.	.	16dd
[4A	.	16cc#
.	.	16b
.	16g]	[8a
.	16g	.
=65	=65	=65
16A]	16f#	8a]
16G	16e	.
16F#	8d	8a
16E	.	.
16D	[8f#	[8dd
16C#	.	.
=66	=66	=66
8BB	16f#]	8.dd]
.	16f#	.
[4G	[4e	.
.	.	16dd
.	.	16cc#
.	.	16b
=67	=67	=67
8G]	16e]	8a#
.	16e	.
[4F#	16d	8b
.	16c#	.
.	16B	8cc#
.	16A#X	.
=68	=68	=68
16F#]	8B	[4.dd
16E	.	.
16D	8f#	.
16C#	.	.
16BB	[8b	.
16AA	.	.
=69	=69	=69
8GG	8b]	16dd]
.	.	16cc#
4G	8B	16dd
.	.	16ee
.	[8e	16ff#
.	.	16gg
=70	=70	=70
4F#	16e]	4a#
.	16g	.
.	16f#	.
.	16e	.
8r	16d	8r
.	16c#	.
=71	=71	=71
16r	8d	4.r
16BB	.	.
16C#	8B	.
16D	.	.
16E	8A#	.
16F#	.	.
=72	=72	=72
8G	8B	4.r
8E	16c#	.
.	16d#	.
8D#	16e	.
.	16f#	.
=73	=73	=73
8E	8g	4.r
16F#	8e	.
16G	.	.
16A	8d#	.
16B	.	.
=74	=74	=74
8cn	8e	16r
.	.	16gg
8Cn	8r	16a
.	.	16gg
8c	8e	16a
.	.	16ff#
=75	=75	=75
8B	8d#	16g
.	.	16ff#
8BB	8r	16g
.	.	16ff#
8B	8e	16g
.	.	16ee
=76	=76	=76
8A	4.f#	16f#
.	.	16ee
16B	.	16dd#
16A	.	16ff#
16G	.	16b
16F#	.	16dd#
=77	=77	=77
8G	8B	16ee
.	.	16dd#
8GG	8r	16ee
.	.	16gg
[8G	8e	16bb
.	.	16ddn
=78	=78	=78
8G]	8a	16cc#
.	.	16b
16A	8r	16cc#
16G	.	16ee
16F#	8r	16a
16E	.	16cc#
=79	=79	=79
8F#	8A	16dd
.	.	16cc#
8FF#	8r	16dd
.	.	16ff#
[8F#	8d	16aa
.	.	16cc#
=80	=80	=80
8F#]	[4.g	16b
.	.	16a#
8E	.	16b
.	.	16dd
8D	.	16cc#
.	.	16b
=81	=81	=81
16C#	8g]	16a#
16D	.	16b
16E	8r	16cc#
16F#	.	16dd
16G	16r	[8ee
16BB	16g	.
=82	=82	=82
16AA#	8f#	8ee]
16G	.	.
16F#	4a#	8cc#
16E	.	.
16D	.	8ff#
16C#	.	.
=83	=83	=83
16BB	8b	8dd
16C#	.	.
16D	8r	8b
16E	.	.
16F#	8r	8a#
16E	.	.
=84	=84	=84
16D	4.r	8b
16F#	.	.
16E	.	16cc#
16D	.	16dd
16C#	.	16ee
16BB	.	16ff#
=85	=85	=85
8E	16r	8gg
.	16dd	.
8r	16e	8g
.	16dd	.
8A	16e	8gg
.	16cc#	.
=86	=86	=86
8D	16d	8ff#
.	16cc#	.
8r	16d	8f#
.	16cc#	.
8G	16d	8ff#
.	16b	.
=87	=87	=87
16C#	8c#	8ee
16B	.	.
16A#	[4cc#	16ff#
16c#	.	16ee
16F#	.	16dd
16A#	.	16cc#
=88	=88	=88
16BB	8cc#]	8dd
16B	.	.
16C#	8b	8ee
16B	.	.
16D	8a	[8ff#
16B	.	.
=89	=89	=89
16E	8g	8ff#]
16B	.	.
16F#	8a	8ee
16B	.	.
16G	[8b	8dd
16B	.	.
=90	=90	=90
16AA	8b]	8cc#
16A	.	.
16BB	8a	8dd
16A	.	.
16C#	8g	[8ee
16A	.	.
=91	=91	=91
16D	8f#	8ee]
16A	.	.
16E	8g	8dd
16A	.	.
16F#	[8a	8cc#
16A	.	.
=92	=92	=92
16G	8a]	4b
16B	.	.
16A	8d	.
16G	.	.
16F#	[8g	8cc#
16E	.	.
=93	=93	=93
16F#	8g]	8dd
16A	.	.
16d	8f#	8a
16A	.	.
16G#	[8fn	8b
16d	.	.
=94	=94	=94
16A	8fn]	8ccn
16cn	.	.
16B	8e	8cc#
16A	.	.
16Gn	[8a	8dd#
16F#	.	.
=95	=95	=95
16G	8a]	8ee
16B	.	.
16e	8g#	8b
16B	.	.
16A#	[8gn	8cc#
16e	.	.
=96	=96	=96
16B	8g]	8dd
16d	.	.
16c#	8f#	8dd#
16B	.	.
16A#	[8b	8ee#
16G#	.	.
=97	=97	=97
16F#	8b]	4ff#
16Gn	.	.
16F#	8a#	.
16E	.	.
16D	8f#	8r
16C#	.	.
=98	=98	=98
16BB	8d	4.r
16C#	.	.
16D	8B	.
16E	.	.
16F#	8A#	.
16E	.	.
=99	=99	=99
8D	16B	8r
.	16b	.
8BB	16a#	8r
.	16b	.
8AA#	8cc#	16r
.	.	16ff#
=100	=100	=100
8BB	8r	16ee
.	.	16dd
8DD	8f#	16cc#
.	.	16b
8FF#	8e	16cc#
.	.	16a#
=101	=101	=101
.	8eQ	8a#Q
4.BBB	4.d#	4.b
==	==	==
*-	*-	*-
!!!AFR:  fugue
!!!EFL:  96/96
!!!END:  1994/02/18/
!!!VID:  1504613999 Bach, BWV 893-02
!!!AST:  Baroque
!!!OCY:  Deutschland
!!!ODT:  1742///
!!!PDT:  1801///
!!!EED:  Walter Hewlett
!!!ENC:  Walter Hewlett
!!!YOR:  Bach Gesellschaft Edition xiv
!!!AFT:  enhanced SCORE
!!!RDT:  2011/10/07/ by Andreas Kornstaedt using massScr2hmd
!!!SCA1: Thematisch-systematisches Verzeichnis der musikalischen Werke 
!!!SCA2: Johann Sebastian Bach: Bach-Werke-Verzeichnis (Schmieder)
!!!YEC1: Copyright 1994, 2000 Center for Computer Assisted Research 
!!!YEC2: in the Humanities
!!!YEM1: Rights to all derivative editions reserved.
!!!YEM2: Refer to licensing agreement for further details.
!!!YEN:  United States of America
!!!ref:  @{OTL}, @{SCT}
!!muse2ps: T^@{OTL} @{ONM} in @{OKY}^C^J.S. Bach\n@{SCT}-@{OMV}^
!!muse2ps: u^@{OPR@ENG}, @{OVM@ENG}^j
